X: 40125
T: Tie The Bonnet
R: reel
M: 4/4
K: Amixolydian
A3g fdec|A3=c BG G2|A3g fdef|g3d BGGB|
A3g fdec|A3=c BG G2|A3g fdef|g3d BG G2||
faaf gfed|cAeA fA A2|faaf gfef|g3d BG G2|
faaf gfed|cAeA fA A2|faaf gfef|g3d BGGB||

